icons/1_Primary/Qualys.svg

<svg width="1024" height="1024" viewBox="0 0 1024 1024" fill="none" xmlns="http://www.w3.org/2000/svg">
<g clip-path="url(#clip0_2_3264)">
<path d="M512 1024C794.77 1024 1024 794.77 1024 512C1024 229.23 794.77 0 512 0C229.23 0 0 229.23 0 512C0 794.77 229.23 1024 512 1024Z" fill="#FF837D"/>
<path d="M512 236.48C662.7 236.48 738.47 317.11 738.47 317.11C738.47 317.11 747.13 376.79 741.6 496.96C733.21 678.49 512 787.51 512 787.52C512 787.53 290.79 678.49 282.44 497C276.91 376.83 285.57 317.15 285.57 317.15C285.57 317.15 361.27 236.52 511.97 236.52L512 236.48ZM398.89 475.1C398.89 410.91 449.63 358.69 512 358.69C542.015 358.724 570.79 370.663 592.014 391.886C613.237 413.11 625.176 441.885 625.21 471.9C625.21 521.73 582.37 562.73 549.36 583.8C562.17 591.11 590.43 598.8 617.5 601.26C637.292 586 653.319 566.403 664.349 543.976C675.378 521.55 681.116 496.892 681.12 471.9C680.777 427.273 662.808 384.591 631.13 353.156C599.452 321.72 556.633 304.08 512.005 304.08C467.377 304.08 424.558 321.72 392.88 353.156C361.202 384.591 343.233 427.273 342.89 471.9C342.89 528.22 366.34 578.25 410.71 616.59C452.19 652.43 512.86 676.36 581.94 687.68C596.94 679.41 622.5 654.99 632.1 640.68C574.41 633.26 519.8 619.19 483.21 599.99C427.27 570.65 398.9 528.62 398.9 475.08L398.89 475.1Z" fill="white"/>
</g>
<defs>
<clipPath id="clip0_2_3264">
<rect width="1024" height="1024" fill="white"/>
</clipPath>
</defs>
</svg>

<svg width="1024" height="1024" fill="none" xmlns="http://www.w3.org/2000/svg"><g clip-path="url(#a)"><path d="M512 1024c282.77 0 512-229.23 512-512S794.77 0 512 0 0 229.23 0 512s229.23 512 512 512Z" fill="#FF837D"/><path d="M512 236.48c150.7 0 226.47 80.63 226.47 80.63s8.66 59.68 3.13 179.85C733.21 678.49 512 787.51 512 787.52c0 .01-221.21-109.03-229.56-290.52-5.53-120.17 3.13-179.85 3.13-179.85s75.7-80.63 226.4-80.63l.03-.04ZM398.89 475.1c0-64.19 50.74-116.41 113.11-116.41A113.341 113.341 0 0 1 625.21 471.9c0 49.83-42.84 90.83-75.85 111.9 12.81 7.31 41.07 15 68.14 17.46a163.382 163.382 0 0 0 63.62-129.36 169.118 169.118 0 0 0-49.99-118.744 169.118 169.118 0 0 0-238.25 0A169.118 169.118 0 0 0 342.89 471.9c0 56.32 23.45 106.35 67.82 144.69 41.48 35.84 102.15 59.77 171.23 71.09 15-8.27 40.56-32.69 50.16-47-57.69-7.42-112.3-21.49-148.89-40.69-55.94-29.34-84.31-71.37-84.31-124.91l-.01.02Z" fill="#fff"/></g><defs><clipPath id="a"><path fill="#fff" d="M0 0h1024v1024H0z"/></clipPath></defs></svg>
